src/containers/site/SiteWalletScreen/asset/wallet_feature_2.svg

<svg width="88" height="88" viewBox="0 0 88 88" fill="none" xmlns="http://www.w3.org/2000/svg">
<path fill-rule="evenodd" clip-rule="evenodd" d="M18 71H69V10H18V71Z" fill="url(#paint0_linear)"/>
<mask id="mask0" mask-type="alpha" maskUnits="userSpaceOnUse" x="11" y="13" width="65" height="65">
<path fill-rule="evenodd" clip-rule="evenodd" d="M13.133 13C11.955 13 11 13.9552 11 15.133V19.3741V75.6537C11 76.9495 12.0505 78 13.3463 78H73.6537C74.9495 78 76 76.9495 76 75.6537V15.133C76 13.9552 75.045 13 73.867 13H13.133ZM14.4129 74.5872H72.5874V22.5737H14.4129V74.5872Z" fill="white"/>
</mask>
<g mask="url(#mask0)">
<path fill-rule="evenodd" clip-rule="evenodd" d="M13.133 13C11.955 13 11 13.9552 11 15.133V19.3741V75.6537C11 76.9495 12.0505 78 13.3463 78H73.6537C74.9495 78 76 76.9495 76 75.6537V15.133C76 13.9552 75.045 13 73.867 13H13.133ZM14.4129 74.5872H72.5874V22.5737H14.4129V74.5872Z" fill="url(#paint1_linear)"/>
</g>
<path fill-rule="evenodd" clip-rule="evenodd" d="M17.3939 18.6734C17.3939 19.5896 16.6341 20.3324 15.697 20.3324C14.7598 20.3324 14 19.5896 14 18.6734C14 17.7572 14.7598 17.0144 15.697 17.0144C16.6341 17.0144 17.3939 17.7572 17.3939 18.6734Z" fill="white"/>
<path fill-rule="evenodd" clip-rule="evenodd" d="M23.0092 18.6734C23.0092 19.5896 22.2494 20.3324 21.3122 20.3324C20.3751 20.3324 19.6152 19.5896 19.6152 18.6734C19.6152 17.7572 20.3751 17.0144 21.3122 17.0144C22.2494 17.0144 23.0092 17.7572 23.0092 18.6734Z" fill="white"/>
<path fill-rule="evenodd" clip-rule="evenodd" d="M28.6234 18.6734C28.6234 19.5896 27.8636 20.3324 26.9265 20.3324C25.9893 20.3324 25.2295 19.5896 25.2295 18.6734C25.2295 17.7572 25.9893 17.0144 26.9265 17.0144C27.8636 17.0144 28.6234 17.7572 28.6234 18.6734Z" fill="white"/>
<path fill-rule="evenodd" clip-rule="evenodd" d="M44.5322 53.0028V57.2751H41.2168V53.0028C40.4372 52.4845 39.9252 51.6115 39.9252 50.6215C39.9252 49.0312 41.2456 47.7421 42.8745 47.7421C44.5034 47.7421 45.8238 49.0312 45.8238 50.6215C45.8238 51.6115 45.3118 52.4847 44.5322 53.0028ZM37.0297 38.1194C37.0297 34.8833 39.7722 32.2613 43.1042 32.3581C46.3108 32.4512 48.8213 35.1058 48.8213 38.2421V42.1026H37.0297V38.1194ZM53.3425 42.1026H52.2152V38.1194C52.2152 33.1644 48.1353 29.1235 43.0872 29.0389C37.8896 28.9518 33.6358 33.1986 33.6358 38.2805V42.1026H32.5085C31.0945 42.1026 29.9482 43.2216 29.9482 44.6021V60.3342C29.9482 61.7147 31.0945 62.8337 32.5085 62.8337H53.3425C54.7567 62.8337 55.9028 61.7147 55.9028 60.3342V44.6021C55.9028 43.2216 54.7567 42.1026 53.3425 42.1026Z" fill="white"/>
<defs>
<linearGradient id="paint0_linear" x1="18.0001" y1="70.9999" x2="69" y2="70.9999" gradientUnits="userSpaceOnUse">
<stop stop-color="#FFB833"/>
<stop offset="1" stop-color="#FF954D"/>
</linearGradient>
<linearGradient id="paint1_linear" x1="11" y1="78.0001" x2="76.0001" y2="78.0001" gradientUnits="userSpaceOnUse">
<stop stop-color="#648AF4"/>
<stop offset="1" stop-color="#8CAFFF"/>
</linearGradient>
</defs>
</svg>

<svg width="88" height="88" fill="none" xmlns="http://www.w3.org/2000/svg"><path fill-rule="evenodd" clip-rule="evenodd" d="M18 71h51V10H18v61z" fill="url(#paint0_linear)"/><mask id="a" maskUnits="userSpaceOnUse" x="11" y="13" width="65" height="65"><path fill-rule="evenodd" clip-rule="evenodd" d="M13.133 13A2.133 2.133 0 0011 15.133v60.521A2.346 2.346 0 0013.346 78h60.308A2.346 2.346 0 0076 75.654V15.133A2.133 2.133 0 0073.867 13H13.133zm1.28 61.587h58.174V22.574H14.413v52.013z" fill="#fff"/></mask><g mask="url(#a)"><path fill-rule="evenodd" clip-rule="evenodd" d="M13.133 13A2.133 2.133 0 0011 15.133v60.521A2.346 2.346 0 0013.346 78h60.308A2.346 2.346 0 0076 75.654V15.133A2.133 2.133 0 0073.867 13H13.133zm1.28 61.587h58.174V22.574H14.413v52.013z" fill="url(#paint1_linear)"/></g><path fill-rule="evenodd" clip-rule="evenodd" d="M17.394 18.673c0 .917-.76 1.66-1.697 1.66S14 19.59 14 18.672c0-.916.76-1.659 1.697-1.659s1.697.743 1.697 1.66zM23.01 18.673c0 .917-.76 1.66-1.698 1.66-.937 0-1.697-.743-1.697-1.66 0-.916.76-1.659 1.697-1.659s1.697.743 1.697 1.66zM28.623 18.673c0 .917-.76 1.66-1.697 1.66s-1.696-.743-1.696-1.66c0-.916.76-1.659 1.697-1.659s1.696.743 1.696 1.66zM44.532 53.003v4.272h-3.315v-4.272a2.858 2.858 0 01-1.292-2.382c0-1.59 1.32-2.879 2.95-2.879 1.628 0 2.949 1.29 2.949 2.88 0 .99-.512 1.863-1.292 2.38zM37.03 38.119c0-3.236 2.742-5.858 6.074-5.76 3.207.092 5.717 2.747 5.717 5.883v3.86H37.03V38.12zm16.313 3.984h-1.128v-3.984c0-4.955-4.08-8.995-9.128-9.08-5.197-.087-9.451 4.16-9.451 9.242v3.822h-1.128c-1.414 0-2.56 1.119-2.56 2.5v15.731c0 1.38 1.146 2.5 2.56 2.5h20.834c1.415 0 2.56-1.12 2.56-2.5V44.602c0-1.38-1.145-2.5-2.56-2.5z" fill="#fff"/><defs><linearGradient id="paint0_linear" x1="18" y1="71" x2="69" y2="71" gradientUnits="userSpaceOnUse"><stop stop-color="#FFB833"/><stop offset="1" stop-color="#FF954D"/></linearGradient><linearGradient id="paint1_linear" x1="11" y1="78" x2="76" y2="78" gradientUnits="userSpaceOnUse"><stop stop-color="#648AF4"/><stop offset="1" stop-color="#8CAFFF"/></linearGradient></defs></svg>
